images/linkedin.svg

<svg xmlns="http://www.w3.org/2000/svg" width="60" height="60" xmlns:v="https://vecta.io/nano"><defs><clipPath id="A"><path d="M0 0h60v60H0z"/></clipPath></defs><g clip-path="url(#A)"><clipPath id="B"><path fill="#fff" d="M0 0h60v60H0z"/></clipPath><g clip-path="url(#B)"><path d="M5.338 21.395C-5.37 29.961 1.751 38.213 9.995 45.333s16.238 8.591 28.318 4.544S57.2 37.738 59.311 32.897s-.101-11.793-5.309-14.206-8.626.864-14.616-6.217-12.881-4.919-18.162-2.562S9.781 17.841 5.338 21.395z" fill="#dcdcdc"/><path d="M29.812 3.728C16.269-2.301 10.155 7.904 5.714 18.636s-2.855 18.728 6.335 28.025 20.669 11.952 26.755 11.741 12.745-5.331 13.29-11.185-4.367-7.538.927-16.183.21-14.014-4.444-17.817S35.432 6.23 29.812 3.728z" fill="#1378b6"/><path d="M20.655 15.807c0 1.842-1.48 3.334-3.307 3.334s-3.306-1.492-3.306-3.334 1.48-3.333 3.306-3.333 3.307 1.493 3.307 3.333zm.027 6h-6.667v21.334h6.667V21.807h0zm10.642 0H24.7v21.334h6.626V31.942c0-6.227 8.038-6.736 8.038 0v11.199h6.651V29.633c0-10.507-11.896-10.124-14.691-4.952v-2.874h0z" fill="#fff"/></g></g></svg>

<?xml version="1.0" standalone="no"?><!-- Generator: Gravit.io --><svg xmlns="http://www.w3.org/2000/svg" xmlns:xlink="http://www.w3.org/1999/xlink" style="isolation:isolate" viewBox="0 0 60 60" width="60" height="60"><defs><clipPath id="_clipPath_VL46wuxiexiVdpkO8x9QnDy7ZRKay4Ms"><rect width="60" height="60"/></clipPath></defs><g clip-path="url(#_clipPath_VL46wuxiexiVdpkO8x9QnDy7ZRKay4Ms)"><clipPath id="_clipPath_VJcpF0MXLPm5BwrCOIpaGgS4h7z7z0CQ"><rect x="0" y="0" width="60" height="60" transform="matrix(1,0,0,1,0,0)" fill="rgb(255,255,255)"/></clipPath><g clip-path="url(#_clipPath_VJcpF0MXLPm5BwrCOIpaGgS4h7z7z0CQ)"><g><path d=" M 5.338 21.395 C -5.37 29.961 1.751 38.213 9.995 45.333 C 18.238 52.454 26.233 53.924 38.313 49.877 C 50.393 45.831 57.2 37.738 59.311 32.897 C 61.422 28.057 59.21 21.104 54.002 18.691 C 48.795 16.278 45.376 19.555 39.386 12.474 C 33.397 5.393 26.505 7.555 21.224 9.912 C 15.943 12.269 9.781 17.841 5.338 21.395 Z " fill="rgb(220,220,220)"/><path d=" M 29.812 3.728 C 16.269 -2.301 10.155 7.904 5.714 18.636 C 1.273 29.369 2.859 37.364 12.049 46.661 C 21.238 55.957 32.718 58.613 38.804 58.402 C 44.891 58.19 51.549 53.071 52.094 47.217 C 52.638 41.364 47.727 39.679 53.021 31.034 C 58.316 22.388 53.231 17.02 48.577 13.217 C 43.922 9.414 35.432 6.23 29.812 3.728 Z " fill="rgb(19,120,182)"/><path d=" M 20.655 15.807 C 20.655 17.649 19.175 19.141 17.348 19.141 C 15.522 19.141 14.042 17.649 14.042 15.807 C 14.042 13.967 15.522 12.474 17.348 12.474 C 19.175 12.474 20.655 13.967 20.655 15.807 Z  M 20.682 21.807 L 14.015 21.807 L 14.015 43.141 L 20.682 43.141 L 20.682 21.807 L 20.682 21.807 Z  M 31.324 21.807 L 24.7 21.807 L 24.7 43.141 L 31.326 43.141 L 31.326 31.942 C 31.326 25.715 39.364 25.206 39.364 31.942 L 39.364 43.141 L 46.015 43.141 L 46.015 29.633 C 46.015 19.126 34.119 19.509 31.324 24.681 L 31.324 21.807 L 31.324 21.807 Z " fill="rgb(255,255,255)"/></g></g></g></svg>
